X:1
T:Wer Weiss, Wie Nahe (Möck), 98.98.88
T:Wer Weiss, Wie Nahe (Möck), 98.98.88
T:Christian Möck, 1818
T:Public Domain Courtesy of the Cyber Hymnal™
C:Christian Möck, 1818
Z:Public Domain
Z:Courtesy of the Cyber Hymnal™
%%score ( 1 2 ) ( 3 4 )
L:1/8
Q:1/4=115
M:4/4
K:Ab
V:1 treble 
V:2 treble 
V:3 bass 
V:4 bass 
V:1
 z2 [EA]2 [EG]2 [EA]2 | [EB]2 [Ec]2 [Fd]2 [Ec]2 | [EB]4 [CA]4 | z2 [EB]2 [Ec]2 [EB]2 | %4
 [FA]2 [EG]2 [EF]2 [=DF]2 | E8 | z2 [EA]2 [EG]2 [EA]2 | [EB]2 [Ec]2 [Fd]2 [Ec]2 | [EB]4 [CA]4 | %9
 z2 [EB]2 [Ec]2 [EB]2 | [FA]2 [EG]2 [EF]2 [=DF]2 | E6 E2 | [FB]2 [GB]2 [Ec]2 [FA]2 | %13
 [Ed]2 [Ec]2 [EB]4 | z2 [Ee]2 [Fd]2 [Ec]2 | [EB]2 [CA]2 [FA]2 [EG]2 | [EA]8 |] %17
V:2
 x8 | x8 | x8 | x8 | x8 | E8 | x8 | x8 | x8 | x8 | x8 | E6 E2 | x8 | x8 | x8 | x8 | x8 |] %17
V:3
 z2 [A,,C]2 [E,B,]2 [C,A,]2 | [B,,G,]2 [A,,A,]2 [D,A,]2 [A,,A,]2 | (A,2 G,2) [A,,A,]4 | %3
 z2 [E,G,]2 [A,,A,]2 [G,,B,]2 | [F,,C]2 [G,,B,]2 [A,,C]2 [B,,B,]2 | [E,G,]8 | %6
 z2 [A,,C]2 [E,B,]2 [C,A,]2 | [B,,G,]2 [A,,A,]2 [D,A,]2 [A,,A,]2 | (A,2 G,2) [A,,A,]4 | %9
 z2 [E,G,]2 [A,,A,]2 [G,,B,]2 | [F,,C]2 [G,,B,]2 [A,,C]2 [B,,B,]2 | [E,G,]6 [E,G,]2 | %12
 [=D,B,]2 [E,B,]2 [A,,A,]2 [_D,A,]2 | [B,,G,]2 [A,,A,]2 [E,G,]4 | z2 [C,A,]2 [D,A,]2 [A,,A,]2 | %15
 [E,G,]2 [F,A,]2 [D,D]2 [E,B,]2 | [A,,C]8 |] %17
V:4
 x8 | x8 | D,4 x4 | x8 | x8 | x8 | x8 | x8 | E,4 x4 | x8 | x8 | x8 | x8 | x8 | x8 | x8 | x8 |] %17

